X: 3100
T: LARGO LAW
Q:"Reel."
R: Reel.
%R:reel
B: James Kerr "Merry Melodies" v.3 p.12 #100
Z: 2016 John Chambers <jc:trillian.mit.edu>
N: Bar 3 also has a vertical stem on the first A; not transcribed.
M: C
L: 1/8
K: A
|:\
c>A A/A/A A2ce | feae feae |\
c>A A/A/A A2cA | GEBE GEBd ::\
ceAe ceAe |
ceeg agae |\
[1 ceAe ceAe | dcBA GBed :|\
[2 agfe dcBA | GEBE GEBd |]

%%sep 1 1 500
%%sep 1 1 500

